X:1
T:Title
%%score { 1 | 2 }
L:1/8
Q:1/4=144
M:4/4
K:G
V:1 treble nm="Grand Piano"
V:2 bass 
V:1
 B4 | G4 A4 | G4 E4 | G4 A4 | B4 B4 | d4 B4 | G4 A2 B2 | c8 | B4 B4 | G4 A4 | G4 E4 | G4 A4 | %12
 B4 B4 | d4 B4 | G4 A2 B2 | c8 | B4 d4 | e4 d2 c2 | B4 G2 A2 | B4 A2 G2 | G4 B4 | B4 B4 | A4 G4 | %23
 F8 | E8 | G4 F4 | E8 | D4 D4 | G4 G4 | A4 A4 | B8 | z4 c4 | B4 A4 | G4 E2 F2 | G4 F3 E | E8 |] %36
V:2
 ^D,4 | E,4 F,2 F,,2 | G,,4 A,,4 | E,2 D,2 C,4 | B,,4 G,,2 G,2 | F,4 G,2 F,2 | E,2 D,2 C,2 B,,2 | %7
 A,,4 A,4 | E,4 ^D,4 | E,4 F,2 F,,2 | G,,4 A,,4 | E,2 D,2 C,4 | B,,4 G,,2 G,2 | D,4 G,2 F,2 | %14
 E,2 D,2 C,2 B,,2 | A,,4 A,4 | E,4 B,,4 | C,4 F,4 | G,4 B,,2 C,2 | D,4 D,,4 | G,,4 G,4 | %21
 G,,2 A,,2 B,,2 C,2 | D,4 E,4 | A,,4 B,,4 | E,8 | E,4 F,2 G,2 | G,4 A,,4 | D,4 D,2 C,2 | B,,4 E,4 | %29
 C,4 D,4 | G,,8 | A,,8 | E,4 F,4 | G,4 A,4 | E,4 B,,4 | E,8 |] %36

